X:689
T:Reel 689
M:4/4
K:Gmaj
L:1/8
g>G (3GGG d>B (3BAB |c>A (3AAA e>A (3ABA | (3gfe d>B  (3BAG |efa (3fga f>d (3cBA |G>G (3GGG B>G (3GFG |e>A (3AGA e2f2|e>f (3fed e>d (3BAG |FAAG =fde2|||>f (3fga g >B (3BcB |c>A (3AAA e>A (3AAA |G>A (3AGA a>g (3gfg | (3efg d>B c2BA|G>A (3AAA f>A (3AAA | (3efg d>f g2Bd|A>B (3ABA a2fd| (3efg fd edBG| (3AGA =fA f2f2|
